X: 6899
T: Chattering Magpie, The
R: reel
M: 4/4
K: Gmajor
|:BGAF DGGA|B2ge fdcA|BGAF DG~G2|1 FGAB c2dc:|2 FGAB c2Bc||
|:dggf g2bg|dg~g2 fgaf|dggf ~g3a|bgag fdcA:|

